!!!OTL: WAS WILLST DU IN DER FREMDE THUN
!!!ARE: Europa, Mitteleuropa, Deutschland, Schleswig, Westkueste; Hessen
!!    Ober - Lahntal
!!!SCT: E1615
!!!YEM: Copyright 1995, estate of Helmut Schaffrath.
**kern
*ICvox
*Ivox
*M2/4
*k[b-]
*F:
{8c
=1
8.f
16e
8f
8g
=2
8.a
16g
8f}
{8a
=3
8g
8cc
8.ee
16dd
=4
4cc
8r}
{16cc
16cc
=5
8cc
8b-
8g
8dd
=6
8dd
8cc
8a}
{16cc
16cc
=7
8cc
8b-
8g
8dd
=8
8dd
8cc
8a}
{16cc
16cc
=9
8.ee
16dd
8cc
8b-
=10
4a
8r}
==
!!!AGN: Staende -, Handwerker -, Gesellen - Lied, Wanderschaft, Abschied
!!!ONB: ESAC (Essen Associative Code) Database: ERK3
!!!AMT: simple duple
!!!AIN: vox
!!!EED: Helmut Schaffrath
!!!EEV: 1.0
*-
